theme/icons/image.svg

<svg viewBox="0 0 20 20" fill="none" xmlns="http://www.w3.org/2000/svg">
<path d="M13.5 9C14.3284 9 15 8.32843 15 7.5C15 6.67157 14.3284 6 13.5 6C12.6716 6 12 6.67157 12 7.5C12 8.32843 12.6716 9 13.5 9Z" fill="black"/>
<path fill-rule="evenodd" clip-rule="evenodd" d="M18 4.05376C18 3.47168 17.5269 3 16.9475 3H3.06216C2.47314 3 2 3.47168 2 4.05376V15.9362C2 16.5283 2.47314 17 3.0525 17H16.9475C17.5269 17 18 16.5283 18 15.9362V4.05376ZM7.88051 10.567C7.64876 10.3262 7.28184 10.3061 7.03078 10.5369L3.4484 14.6315V4.47527H16.5516V14.6315L14.1183 11.6509C14.004 11.5409 13.854 11.4797 13.6983 11.4797C13.5425 11.4797 13.3925 11.5409 13.2782 11.6509L11.1249 13.7183L7.88051 10.567Z" fill="black"/>
</svg>

<svg viewBox="0 0 20 20" xmlns="http://www.w3.org/2000/svg"><path d="M13.5 9a1.5 1.5 0 100-3 1.5 1.5 0 000 3z"/><path clip-rule="evenodd" d="M18 4.054C18 3.472 17.527 3 16.948 3H3.062C2.473 3 2 3.472 2 4.054v11.882C2 16.528 2.473 17 3.053 17h13.895c.579 0 1.052-.472 1.052-1.064V4.054zM7.88 10.567a.6.6 0 00-.85-.03l-3.582 4.095V4.475h13.104v10.157l-2.434-2.981a.606.606 0 00-.42-.171.606.606 0 00-.42.17l-2.153 2.068-3.244-3.151z"/></svg>
